svgs/sharp-solid/bed-front.svg

<svg xmlns="http://www.w3.org/2000/svg" viewBox="0 0 512 512"><!--! Font Awesome Pro 6.6.0 by @fontawesome - https://fontawesome.com License - https://fontawesome.com/license (Commercial License) Copyright 2024 Fonticons, Inc. --><path d="M32 32l448 0 0 160-32 0-16 0 0-64-160 0 0 64-32 0 0-64L80 128l0 64-16 0-32 0L32 32zM0 224l32 0 448 0 32 0 0 32 0 192 0 32-64 0 0-32 0-32L64 416l0 32 0 32L0 480l0-32L0 256l0-32z"/></svg>

<svg xmlns="http://www.w3.org/2000/svg" viewBox="0 0 512 512"><!--! Font Awesome Pro 6.4.2 by @fontawesome - https://fontawesome.com License - https://fontawesome.com/license (Commercial License) Copyright 2023 Fonticons, Inc. --><path d="M32 32H480V192H448 432V128H272v64H240V128H80v64H64 32V32zM0 224H32 480h32v32V448v32H448V448 416H64v32 32H0V448 256 224z"/></svg>
